X: 2
T: Bridge Of Athlone, The
Z: ceolachan
S: https://thesession.org/tunes/6534#setting18222
R: hornpipe
M: 4/4
L: 1/8
K: Gmin
B2 B2 F>Bd>B | c>bc>d e>dc>B | A>Bc>d c>BA>G | (3FAc f>g f>ed>c |B>dF>B (3DFB d>B | e>gc>e (3FAc e>c | (3Bac (3BAG F2 G>A | B2 d2 B2 :|c>fa>g (3feg f>e|d>fb>a g2 g>f | (3edc (3dcB (3afe (3dcB | (3FAc f>g B>dF>B (3DFB d>B|e>gc>e (3FAc e>c | (3Bac (3BAG F2 G>A | B2 d2 B2 :|
